X:1
T:Title
%%score { ( 1 3 ) | ( 2 4 ) }
L:1/8
M:3/4
K:D
V:1 treble nm="Grand Piano"
V:3 treble 
V:2 bass 
V:4 bass 
V:1
 z2 z[Q:1/4=100] D F[EG] | [FA]3 [FA] [GB][=F^G] | [FA]4 [FA]2 | [GA]3 [CE] [DF][EG] | F3 D F[EG] | %5
 [FA]3 [FA] [GB][=F^G] | [FA]4 [FA]2 | [CEA]3 [A,DF] [A,CG][K:bass][G,CE] | %8
[M:9/16] [F,D]4- [F,D]/ |[M:4/4][K:treble] z2 z B- B4 | z2 z A- A4- | A z z2 z2 z A | z2 z A- A4 | %13
 z2 z [GB]- [GB]4 | z2 z A- A4 | z8 |[M:11/16] z .B3/2 z/ d/-d-<d- | d/-d/-d-<d z/ z/ z/ z |] %18
V:2
 z2 z [D,F,] [D,A,D][D,A,] | [D,D]3 [D,D] [D,D][D,D] | [D,D]4 [D,D]2 | %3
 [E,C]3 [E,A,] [A,,A,][A,,A,] | [D,A,D]3 [D,F,] [D,A,D][D,A,] | [D,D]3 [D,D] [D,D][D,D] | %6
 [D,D]4 [D,D]2 | A,,3 A,, A,,A,, |[M:9/16] D,4- D,/ |[M:4/4][K:treble] z2 z G- G4 | %10
 z2 z[K:bass] F- F4- | F z z2 z2 z A,,- | A,, z z2 z4 | =C,B,,A,,G,,- G,,G,G,G, | %14
 z2 z F- F4[K:bass] | z8 |[M:11/16] z/ z/ z/ z/ z A, z/ z | z11/2 |] %18
V:3
 x6 | x6 | x6 | x6 | x6 | x6 | x6 | x5[K:bass] x |[M:9/16] x9/2 |[M:4/4][K:treble] FG .A2 DDDD | %10
 dd .B2 DDDD- | D z z [CGA]- [CGA]2 [CGB][CG]- | [CG][CGA][CGB][DF]- [DF][DF][DF][DF] | %13
 [DF][DEG][DFA]D- DDDD | dd .B2 DDDD | [A,FA][A,FA][A,FA][Ec]- [Ec]2 [EGc][EGc]- | %16
[M:11/16] [EGc]G-[Gc]FFA/- | A/GF3/2 z/ z/ z/ z |] %18
V:4
 x6 | x6 | x6 | x6 | x6 | x6 | x6 | x6 |[M:9/16] x9/2 |[M:4/4][K:treble] DE .F2 G,G,G,G, | %10
 BB .G2[K:bass] D,D,D,D,- | D, z z E,- E,2 .E,2 | BA,,A,,D,- D,D,D,D, | x8 | %14
 BB .G2 D,[K:bass]D,D,D, | D,D,D,[A,,A,]- [A,,A,]2 A,,A,,- | %16
[M:11/16] A,,[A,,A,]-<[A,,A,]D,-[D,-A,][D,=C]/- | [D,-C]/[D,-B,][D,A,]3/2 z/ z/ z/ z |] %18

